!!!OTL: Trost-Rundgesang.
!!!OTL-incipit:WIE WIR SO FEST ZUSAMMEN STEHN
!!!ARE: Europa, Mitteleuropa, Deutschland
!!!SCT: F0396
!!!TXL: @@DE
!!!YEM: Copyright 1995, estate of Helmut Schaffrath.
**kern	**text
*ICvox	*
*clefG2	*
*M6/8	*
*k[]	*
*C:	*
!LO:TX:a:t=Gehalten.	!
{8g	Wie
=1	=1
4e	wir
8e	ſo
8fL	feſt
8eJ	.
8f	ʒu-
=2	=2
8gL	-ſammen
8aJ	.
8b/	.
4cc}	ſtehn
{8b	mit
=3	=3
4a	un-
8g	-ver-
8gL	-fälſchtem
8fJ	.
8e	.
=4	=4
4d	Blut,
8r	.
4r}	.
{8g	der
=5	=5
4e	Fei-
8e	-er-
8fL	-ſtunde
8eJ	.
8f	.
=6	=6
8gL	heilig
8aJ	.
8b/	.
4cc}	Wehn
{8b	ſchwellt
=7	=7
4dd	meinen
8b	.
8aL	jungen
8gJ	.
8a	.
=8	=8
4g	Muth;
8r	.
4r}	.
{8b	es
=9	=9
4b	treibt
8g	mich
4d	raſch
8dd	ʒum
=10	=10
4dd	Lie-
8b	-de
4g}	fort,
{8g	ʒum
=11	=11
8gL	Harfenſturm
8fJ	.
8f	.
8eL	.
8fJ	.
8g	hinaus;
=12	=12
4d	.
8r	.
4r}	.
{8g	im
=13	=13
4e	Herʒen
8g	.
4cc	lebt
8e	ein
=14	=14
4f	kühnes
8a	.
4cc}	Wort,
{8a	was
=15	=15
4g	gilt's,
8g	ich
8gL	ſprech'
8aJ	.
8b/	es
=16	=16
4.cc}	aus,
{4.ee	was
=17	=17
8eeL	gilt's,
8ddJ	.
8cc	ich
8gL	ſprech'
8aJ	.
8b/	es
=18	=18
4cc	aus!
8r	.
4r}	.
{8c	Die
=19	=19
4e-	Ʒeit
8e-	iſt
4d	ſchlimm,
8d	die
=20	=20
4c	Welt
8e-	iſt
4g}	karg,
{8g	die
=21	=21
4e-	Be-
8e-	-ſten
8dL	weg-
8cJ	.
8d	-ge-
=22	=22
4c	-raſſt.
8r	.
4r}	.
{8c	Die
=23	=23
4a-	Er-
8a-	-de
4g	wird
8g	ein
=24	=24
4f	gro-
8f	-ßer
4e-}	Sarg
{8e-	der
=25	=25
4d	Freiheit
8d	.
4g	und
8g	der
=26	=26
4c	Kraft.
8r	.
4r}	.
{8g	Doch
=27	=27
4cc	Muth!
8g	wenn
4g	auch
8een	die
=28	=28
4ee	Ty-
8cc	-rannei
4cc}	.
{8g	die
=29	=29
4a	teutſche
8a	.
8bL	Flur
8aJ	.
8b/	ʒer-
=30	=30
4cc	-trat,
8r	.
4r}	.
{8g	in
=31	=31
4dd	vie-
8dd	-len
4dd	Herʒen
8ee	.
=32	=32
4cc	fromm
8cc	und
4cc}	treu
{8g	keimt
=33	=33
4dd	noch
8dd	des
8ddL	Guten
8eeJ	.
8dd	.
=34	=34
4.cc}	Saat,
{4.dd	keimt
=35	=35
4ee	noch
8cc	des
8gL	Guten
8aJ	.
8b/	.
=36	=36
4.cc	Saat!
4r}	.
==	==
!!!AGN: Vaterlands -, Heimat - Lied, nationalistisch
!!!ONB: ESAC (Essen Associative Code) Database: FINK
!!!AMT: compound duple
!!!AIN: vox
!!!EED: Helmut Schaffrath
!!!EEV: 1.0
!!Text: Th. Koerner. (1813, im Fruehlinge)
!!!RDF**kern: > = above
!!!GTL: Vaterlands- und Heimathslieder
!!!source: Musikalischer Hausschatz der Deutschen. Eine Sammlung von über 1000 Liedern und Gesängen mit Singstimmen und Klavierbegleitung. Leipzig, Litterarisches Verlags-Haus.
!!!page: 240
!!!URL-scan: https://www.digitale-sammlungen.de/en/view/bsb11144622?page=230
!!!ENC: Anna Maria Matuszewska
!!!EEV: 2024/09/08
*-	*-
